; generated by Slic3r 1.2.9 on 2015-08-05 at 16:25:54

; external perimeters extrusion width = 0.50mm
; perimeters extrusion width = 0.72mm
; infill extrusion width = 0.72mm
; solid infill extrusion width = 0.72mm
; top infill extrusion width = 0.72mm

M107
M104 S200 ; set temperature
G28 ; home all axes
G1 Z5 F5000 ; lift nozzle

M109 S200 ; wait for temperature to be reached
G21 ; set units to millimeters
G90 ; use absolute coordinates
M82 ; use absolute distances for extrusion
G92 E0
G1 Z0.500 F7800.000
G1 E-2.00000 F2400.00000
G92 E0
G1 X84.520 Y84.520 F7800.000
G1 E2.00000 F2400.00000
G1 X92.033 Y77.007 E2.67092 F1800.000
G1 X93.944 Y75.657 E2.81866
G1 X96.906 Y74.988 E3.01046
G1 X103.094 Y74.988 E3.40115
G1 X105.399 Y75.385 E3.54889
G1 X107.967 Y77.007 E3.74068 F1800.000
G1 X122.993 Y92.033 E5.08253
G1 X124.343 Y93.944 E5.23027
G1 X125.012 Y96.906 E5.42206
G1 X125.012 Y103.094 E5.81275
G1 X124.615 Y105.399 E5.96049
G1 X122.993 Y107.967 E6.15229
G1 X107.967 Y122.993 E7.49413
G1 X106.056 Y124.343 E7.64187
G1 X103.094 Y125.012 E7.83366
G1 X96.906 Y125.012 E8.22436
G1 X94.601 Y124.615 E8.37210
G1 X92.033 Y122.993 E8.56389
G1 X77.007 Y107.967 E9.90573
G1 X75.657 Y106.056 E10.05347
G1 X74.988 Y103.094 E10.24527
G1 X74.988 Y96.906 E10.63596
G1 X75.385 Y94.601 E10.78370
G1 X77.007 Y92.033 E10.97549
G1 X84.466 Y84.573 E11.64168
G1 E9.64168 F2400.00000
G92 E0
G1 X98.958 Y109.564 F7800.000
G1 E2.00000 F2400.00000
G1 X97.710 Y110.522 E2.09933 F1800.000
G1 X96.256 Y111.124 E2.19866
G1 X94.697 Y111.329 E2.29800
G1 X93.137 Y111.124 E2.39733
G1 X91.684 Y110.522 E2.49666
G1 X90.436 Y109.564 E2.59599
G1 X89.478 Y108.316 E2.69533
G1 X88.876 Y106.863 E2.79466
G1 X88.671 Y105.303 E2.89399
G1 X88.876 Y103.744 E2.99332
G1 X89.478 Y102.290 E3.09266
G1 X90.436 Y101.042 E3.19199
G1 X91.684 Y100.085 E3.29132
G1 X93.137 Y99.483 E3.39065
G1 X93.437 Y99.443 E3.40978
G1 X94.697 Y99.277 E3.48999 F1800.000
G1 X96.256 Y99.483 E3.58932
G1 X97.710 Y100.085 E3.68865
G1 X98.958 Y101.042 E3.78798
G1 X99.915 Y102.290 E3.88732
G1 X100.517 Y103.744 E3.98665
G1 X100.723 Y105.303 E4.08598
G1 X100.517 Y106.863 E4.18531
G1 X99.915 Y108.316 E4.28465
G1 X99.003 Y109.505 E4.37924
G1 X99.066 Y110.052 F7800.000
G1 X102.857 Y100.150 F7800.000
G1 X102.290 Y99.915 E4.41798 F1800.000
G1 X101.042 Y98.958 E4.51731
G1 X100.085 Y97.710 E4.61665
G1 X99.483 Y96.256 E4.71598
G1 X99.277 Y94.697 E4.81531
G1 X99.483 Y93.137 E4.91465
G1 X100.085 Y91.684 E5.01398
G1 X101.042 Y90.436 E5.11331
G1 X102.290 Y89.478 E5.21264
G1 X103.744 Y88.876 E5.31198
G1 X103.988 Y88.844 E5.32751
G1 X105.303 Y88.671 E5.41131 F1800.000
G1 X106.863 Y88.876 E5.51064
G1 X108.316 Y89.478 E5.60997
G1 X109.564 Y90.436 E5.70930
G1 X110.522 Y91.684 E5.80864
G1 X111.124 Y93.137 E5.90797
G1 X111.329 Y94.697 E6.00730
G1 X111.124 Y96.256 E6.10663
G1 X110.522 Y97.710 E6.20597
G1 X109.564 Y98.958 E6.30530
G1 X108.316 Y99.915 E6.40463
G1 X106.863 Y100.517 E6.50397
G1 X105.303 Y100.723 E6.60330
G1 X103.744 Y100.517 E6.70263
G1 X102.926 Y100.179 E6.75849
G1 X102.460 Y100.454 F7800.000
G1 X101.535 Y101.535 F7800.000
G1 X103.278 Y102.257 E6.87760 F1800.000
G1 X105.303 Y102.523 E7.00662
G1 X107.329 Y102.257 E7.13564
G1 X109.217 Y101.475 E7.26466
G1 X110.838 Y100.231 E7.39367
G1 X112.081 Y98.610 E7.52269
G1 X112.863 Y96.722 E7.65171
G1 X113.077 Y95.096 E7.75528
G1 X115.834 Y97.853 E8.00147
G1 X115.834 Y102.147 E8.27261
G1 X102.147 Y115.834 E9.49490
G1 X97.853 Y115.834 E9.76604
G1 X95.096 Y113.077 E10.01223
G1 X96.722 Y112.863 E10.11580
G1 X98.610 Y112.081 E10.24482
G1 X100.231 Y110.838 E10.37383
G1 X101.475 Y109.217 E10.50285
G1 X102.257 Y107.329 E10.63187
G1 X102.523 Y105.303 E10.76089
G1 X102.257 Y103.278 E10.88990
G1 X101.564 Y101.604 E11.00428
G1 X98.465 Y98.465 F7800.000
G1 X96.722 Y97.743 E11.12340 F1800.000
G1 X94.697 Y97.477 E11.25242
G1 X92.671 Y97.743 E11.38144
G1 X90.783 Y98.525 E11.51045
G1 X89.162 Y99.769 E11.63947
G1 X87.919 Y101.390 E11.76849
G1 X87.137 Y103.278 E11.89751
G1 X86.923 Y104.904 E12.00108
G1 X84.166 Y102.147 E12.24726
G1 X84.166 Y97.853 E12.51840
G1 X97.853 Y84.166 E13.74069
G1 X102.147 Y84.166 E14.01184
G1 X104.904 Y86.923 E14.25802
G1 X103.278 Y87.137 E14.36159
G1 X101.390 Y87.919 E14.49061
G1 X99.769 Y89.162 E14.61963
G1 X98.525 Y90.783 E14.74865
G1 X97.743 Y92.671 E14.87766
G1 X97.477 Y94.697 E15.00668
G1 X97.743 Y96.722 E15.13570
G1 X98.436 Y98.396 E15.25008
G1 X91.347 Y94.988 F7800.000
G1 X85.966 Y101.401 F7800.000
G1 X86.895 Y104.821 F7800.000
G1 X87.126 Y105.440 F7800.000
G1 X87.922 Y107.055 F7800.000
G1 X87.952 Y106.681 F7800.000
G1 X87.608 Y106.851 E15.27432 F1800.000
G1 X83.273 Y102.517 E15.66139
G1 X83.273 Y97.483 E15.97923
G1 X97.483 Y83.273 E17.24822
G1 X102.517 Y83.273 E17.56606
G1 X106.851 Y87.608 E17.95314
G1 X106.681 Y87.952 E17.97738
G1 X105.303 Y87.770 E18.06515
G1 X103.511 Y88.006 E18.17933
G1 X101.840 Y88.698 E18.29350
G1 X100.406 Y89.799 E18.40768
G1 X99.305 Y91.234 E18.52185
G1 X98.613 Y92.904 E18.63603
G1 X98.377 Y94.697 E18.75020
G1 X98.613 Y96.489 E18.86438
G1 X99.305 Y98.160 E18.97855
G1 X100.406 Y99.594 E19.09273
G1 X101.840 Y100.695 E19.20690
G1 X103.511 Y101.387 E19.32108
G1 X105.303 Y101.623 E19.43525
G1 X107.096 Y101.387 E19.54943
G1 X108.766 Y100.695 E19.66360
G1 X110.201 Y99.594 E19.77778
G1 X111.302 Y98.160 E19.89195
G1 X111.994 Y96.489 E20.00613
G1 X112.230 Y94.697 E20.12030
G1 X112.048 Y93.319 E20.20808
G1 X112.392 Y93.149 E20.23232
G1 X116.727 Y97.483 E20.61940
G1 X116.727 Y102.517 E20.93724
G1 X102.517 Y116.727 E22.20622
G1 X97.483 Y116.727 E22.52406
G1 X93.149 Y112.392 E22.91114
G1 X93.319 Y112.048 E22.93538
G1 X94.697 Y112.230 E23.02316
G1 X96.489 Y111.994 E23.13733
G1 X98.160 Y111.302 E23.25151
G1 X99.594 Y110.201 E23.36568
G1 X100.695 Y108.766 E23.47986
G1 X101.387 Y107.096 E23.59403
G1 X101.623 Y105.303 E23.70821
G1 X101.387 Y103.511 E23.82238
G1 X100.695 Y101.840 E23.93656
G1 X99.594 Y100.406 E24.05073
G1 X98.160 Y99.305 E24.16491
G1 X96.489 Y98.613 E24.27908
G1 X94.697 Y98.377 E24.39325
G1 X92.904 Y98.613 E24.50743
G1 X91.234 Y99.305 E24.62161
G1 X89.799 Y100.406 E24.73578
G1 X88.698 Y101.840 E24.84995
G1 X88.006 Y103.511 E24.96413
G1 X87.770 Y105.303 E25.07831
G1 X87.942 Y106.607 E25.16135
G1 X87.064 Y107.570 F7800.000
G1 X82.380 Y102.886 E25.57956 F1800.000
G1 X82.380 Y97.114 E25.94410
G1 X97.114 Y82.380 E27.25979
G1 X102.886 Y82.380 E27.62433
G1 X105.392 Y84.886 E27.84804
G1 X117.620 Y97.114 E28.94001 F1800.000
G1 X117.620 Y102.886 E29.30455
G1 X102.886 Y117.620 E30.62024
G1 X97.114 Y117.620 E30.98478
G1 X87.117 Y107.623 E31.87751
G1 X87.193 Y107.087 F7800.000
G1 X87.984 Y107.163 F7800.000
G1 X88.945 Y108.601 E31.98668 F1800.000
G1 X90.087 Y109.906 E32.09620
G1 X91.367 Y111.031 E32.20382
G1 X92.837 Y112.016 E32.31552
G1 X96.514 Y113.422 F7800.000
G1 X98.377 Y115.285 E32.48693 F1800.000
G1 X99.677 Y115.285 E32.57154
G1 X97.476 Y113.083 E32.77410
G1 X98.395 Y112.702 E32.83886
G1 X100.978 Y115.285 E33.07646
G1 X102.140 Y115.147 E33.15261
G1 X99.211 Y112.217 E33.42213
G1 X99.947 Y111.652 E33.48247
G1 X102.791 Y114.496 E33.74411
G1 X103.441 Y113.846 E33.80394
G1 X100.656 Y111.061 E34.06015
G1 X101.221 Y110.325 E34.12049
G1 X104.091 Y113.196 E34.38458
G1 X104.742 Y112.545 E34.44441
G1 X101.785 Y109.589 E34.71637
G1 X102.214 Y108.717 E34.77959
G1 X105.392 Y111.895 E35.07198
G1 X106.042 Y111.245 E35.13181
G1 X102.595 Y107.797 E35.44898
G1 X102.862 Y106.764 E35.51842
G1 X106.692 Y110.594 E35.87083
G1 X107.343 Y109.944 E35.93066
G1 X103.013 Y105.615 E36.32897
G1 X102.968 Y104.268 E36.41659
G1 X107.993 Y109.294 E36.87891
G1 X108.643 Y108.643 E36.93874
G1 X102.747 Y102.747 E37.48117
G1 X104.268 Y102.968 E37.58115
G1 X109.294 Y107.993 E38.04347
G1 X109.944 Y107.343 E38.10330
G1 X105.615 Y103.013 E38.50162
G1 X106.764 Y102.862 E38.57703
G1 X110.594 Y106.692 E38.92944
G1 X111.245 Y106.042 E38.98927
G1 X107.797 Y102.595 E39.30644
G1 X108.717 Y102.214 E39.37120
G1 X111.895 Y105.392 E39.66359
G1 X112.545 Y104.742 E39.72342
G1 X109.589 Y101.785 E39.99538
G1 X110.325 Y101.221 E40.05573
G1 X113.196 Y104.091 E40.31981
G1 X113.846 Y103.441 E40.37964
G1 X111.061 Y100.656 E40.63585
G1 X111.652 Y99.947 E40.69592
G1 X114.496 Y102.791 E40.95756
G1 X115.147 Y102.140 E41.01739
G1 X112.217 Y99.211 E41.28691
G1 X112.702 Y98.395 E41.34864
G1 X115.285 Y100.978 E41.58624
G1 X115.285 Y99.677 E41.67085
G1 X113.083 Y97.476 E41.87341
G1 X113.422 Y96.514 E41.93976
G1 X115.285 Y98.377 E42.11117
G1 X112.016 Y92.837 F7800.000
G1 X111.055 Y91.399 E42.22034 F1800.000
G1 X109.913 Y90.094 E42.32985
G1 X108.633 Y88.969 E42.43748
G1 X107.163 Y87.984 E42.54918
G1 X103.486 Y86.578 F7800.000
G1 X101.623 Y84.715 E42.72059 F1800.000
G1 X100.323 Y84.715 E42.80520
G1 X102.524 Y86.917 E43.00776
G1 X101.605 Y87.298 E43.07252
G1 X99.022 Y84.715 E43.31012
G1 X97.860 Y84.853 E43.38627
G1 X100.789 Y87.783 E43.65578
G1 X100.053 Y88.348 E43.71613
G1 X97.209 Y85.504 E43.97777
G1 X96.559 Y86.154 E44.03760
G1 X99.344 Y88.939 E44.29381
G1 X98.779 Y89.675 E44.35415
G1 X95.909 Y86.804 E44.61824
G1 X95.258 Y87.455 E44.67806
G1 X98.215 Y90.411 E44.95002
G1 X97.786 Y91.283 E45.01325
G1 X94.608 Y88.105 E45.30564
G1 X93.958 Y88.755 E45.36547
G1 X97.405 Y92.203 E45.68264
G1 X97.138 Y93.236 E45.75208
G1 X93.308 Y89.406 E46.10448
G1 X92.657 Y90.056 E46.16431
G1 X96.987 Y94.385 E46.56263
G1 X97.032 Y95.732 E46.65024
G1 X92.007 Y90.706 E47.11257
G1 X91.357 Y91.357 E47.17240
G1 X97.253 Y97.253 E47.71482
G1 X95.732 Y97.032 E47.81481
G1 X90.706 Y92.007 E48.27713
G1 X90.056 Y92.657 E48.33696
G1 X94.385 Y96.987 E48.73527
G1 X93.236 Y97.138 E48.81069
G1 X89.406 Y93.308 E49.16310
G1 X88.755 Y93.958 E49.22293
G1 X92.203 Y97.405 E49.54010
G1 X91.283 Y97.786 E49.60486
G1 X88.105 Y94.608 E49.89725
G1 X87.455 Y95.258 E49.95708
G1 X90.411 Y98.215 E50.22904
G1 X89.675 Y98.779 E50.28938
G1 X86.804 Y95.909 E50.55347
G1 X86.154 Y96.559 E50.61330
G1 X88.939 Y99.344 E50.86950
G1 X88.348 Y100.053 E50.92958
G1 X85.504 Y97.209 E51.19122
G1 X84.853 Y97.860 E51.25105
G1 X87.783 Y100.789 E51.52057
G1 X87.298 Y101.605 E51.58229
G1 X84.715 Y99.022 E51.81990
G1 X84.715 Y100.323 E51.90451
G1 X86.917 Y102.524 E52.10706
G1 X86.578 Y103.486 E52.17341
G1 X84.715 Y101.623 E52.34482
G1 X92.748 Y94.210 F7800.000
G1 X96.690 Y96.690 F7800.000
G1 X98.456 Y98.456 F7800.000
G1 X98.694 Y98.694 F7800.000
G1 X98.694 Y98.694 F7800.000
G1 X98.558 Y99.015 F7800.000
G1 X99.241 Y99.409 E52.39459 F1800.000
G1 X99.779 Y99.511 E52.42922
G1 X99.015 Y98.558 F7800.000
G1 X99.409 Y99.241 E52.47898 F1800.000
G1 X99.449 Y99.449 E52.49235
G1 X100.710 Y100.710 E52.60500
G1 X100.985 Y101.442 F7800.000
G1 X100.591 Y100.759 E52.65477 F1800.000
G1 X100.551 Y100.551 E52.66813
G1 X100.759 Y100.591 E52.68150
G1 X101.442 Y100.985 E52.73127
G1 Z0.800 F7800.000
G1 E50.73127 F2400.00000
G92 E0
G1 X88.589 Y106.940 F7800.000
G1 E2.00000 F2400.00000
G1 X88.373 Y105.303 E2.04585 F900.000
G1 X88.589 Y103.667 E2.09171
G1 X89.220 Y102.142 E2.13756
G1 X90.225 Y100.832 E2.18342
G1 X91.535 Y99.827 E2.22927
G1 X93.060 Y99.195 E2.27513 F900.000
G1 X93.628 Y99.120 E2.29105
G1 X94.697 Y98.980 E2.32098
G1 X96.333 Y99.195 E2.36684
G1 X97.858 Y99.827 E2.41269
G1 X99.168 Y100.832 E2.45855
G1 X100.173 Y102.142 E2.50440
G1 X100.805 Y103.667 E2.55025
G1 X101.020 Y105.303 E2.59611
G1 X100.805 Y106.940 E2.64196
G1 X100.173 Y108.465 E2.68782
G1 X99.168 Y109.775 E2.73367
G1 X97.858 Y110.780 E2.77953
G1 X96.333 Y111.411 E2.82538
G1 X94.697 Y111.627 E2.87124
G1 X93.060 Y111.411 E2.91709
G1 X91.535 Y110.780 E2.96294
G1 X90.225 Y109.775 E3.00880
G1 X89.220 Y108.465 E3.05465
G1 X88.617 Y107.009 E3.09843
G1 X89.120 Y106.798 F7800.000
G1 X88.923 Y105.303 E3.12629 F900.000
G1 X88.988 Y104.806 E3.13556
G1 X89.120 Y103.809 E3.15416
G1 X89.697 Y102.416 E3.18202
G1 X90.614 Y101.221 E3.20989
G1 X91.810 Y100.303 E3.23776
G1 X93.202 Y99.726 E3.26562
G1 X93.699 Y99.661 E3.27489
G1 X94.697 Y99.530 E3.29349 F900.000
G1 X96.191 Y99.726 E3.32136
G1 X97.584 Y100.303 E3.34922
G1 X98.779 Y101.221 E3.37709
G1 X99.697 Y102.416 E3.40496
G1 X100.274 Y103.809 E3.43282
G1 X100.470 Y105.303 E3.46069
G1 X100.274 Y106.798 E3.48855
G1 X99.697 Y108.190 E3.51642
G1 X98.779 Y109.386 E3.54429
G1 X97.584 Y110.303 E3.57215
G1 X96.191 Y110.880 E3.60002
G1 X94.697 Y111.077 E3.62789
G1 X93.202 Y110.880 E3.65575
G1 X91.810 Y110.303 E3.68362
G1 X90.614 Y109.386 E3.71148
G1 X89.697 Y108.190 E3.73935
G1 X89.148 Y106.867 E3.76583
G1 X88.643 Y106.647 F7800.000
G1 X87.642 Y106.805 F7800.000
G1 X82.623 Y101.786 E3.96300 F3600.000
G1 X82.623 Y98.214 E4.06223
G1 X98.214 Y82.623 E4.67471
G1 X101.786 Y82.623 E4.77393
G1 X106.805 Y87.642 E4.97110
G1 X106.681 Y87.894 E4.97892
G1 X105.303 Y87.713 E5.01751
G1 X103.496 Y87.951 E5.06816
G1 X101.811 Y88.649 E5.11880
G1 X100.365 Y89.759 E5.16944
G1 X99.255 Y91.205 E5.22008
G1 X98.558 Y92.889 E5.27072
G1 X98.320 Y94.697 E5.32136
G1 X98.558 Y96.504 E5.37200
G1 X99.255 Y98.189 E5.42265
G1 X100.365 Y99.635 E5.47329
G1 X101.811 Y100.745 E5.52393
G1 X103.496 Y101.442 E5.57457
G1 X105.303 Y101.680 E5.62521
G1 X107.111 Y101.442 E5.67585
G1 X108.795 Y100.745 E5.72650
G1 X110.241 Y99.635 E5.77714
G1 X111.351 Y98.189 E5.82778
G1 X112.049 Y96.504 E5.87842
G1 X112.287 Y94.697 E5.92906
G1 X112.106 Y93.319 E5.96766
G1 X112.358 Y93.195 E5.97547
G1 X117.377 Y98.214 E6.17264
G1 X117.377 Y101.786 E6.27187
G1 X101.786 Y117.377 E6.88435
G1 X98.214 Y117.377 E6.98357
G1 X93.195 Y112.358 E7.18074
G1 X93.319 Y112.106 E7.18856
G1 X94.697 Y112.287 E7.22715
G1 X96.504 Y112.049 E7.27780
G1 X98.189 Y111.351 E7.32844
G1 X99.635 Y110.241 E7.37908
G1 X100.745 Y108.795 E7.42972
G1 X101.442 Y107.111 E7.48036
G1 X101.680 Y105.303 E7.53100
G1 X101.442 Y103.496 E7.58165
G1 X100.745 Y101.811 E7.63229
G1 X99.635 Y100.365 E7.68293
G1 X98.189 Y99.255 E7.73357
G1 X96.504 Y98.558 E7.78421
G1 X94.697 Y98.320 E7.83485
G1 X92.889 Y98.558 E7.88549
G1 X91.205 Y99.255 E7.93614
G1 X89.759 Y100.365 E7.98678
G1 X88.649 Y101.811 E8.03742
G1 X87.951 Y103.496 E8.08806
G1 X87.713 Y105.303 E8.13870
G1 X87.894 Y106.681 E8.17730
G1 X87.709 Y106.772 E8.18303
G1 X89.080 Y96.584 F7800.000
G1 X94.079 Y94.079 F7800.000
G1 X96.690 Y96.690 F7800.000
G1 X97.151 Y97.151 F7800.000
G1 X98.456 Y98.456 F7800.000
G1 X99.648 Y97.962 F7800.000
G1 X99.827 Y97.858 F7800.000
G1 X99.195 Y96.333 E8.22888 F900.000
G1 X98.980 Y94.697 E8.27474
G1 X99.195 Y93.060 E8.32059
G1 X99.827 Y91.535 E8.36645
G1 X100.832 Y90.225 E8.41230
G1 X102.142 Y89.220 E8.45816
G1 X103.667 Y88.589 E8.50401
G1 X104.235 Y88.514 E8.51993
G1 X105.303 Y88.373 E8.54987 F900.000
G1 X106.940 Y88.589 E8.59572
G1 X108.465 Y89.220 E8.64157
G1 X109.775 Y90.225 E8.68743
G1 X110.780 Y91.535 E8.73328
G1 X111.411 Y93.060 E8.77914
G1 X111.627 Y94.697 E8.82499
G1 X111.411 Y96.333 E8.87085
G1 X110.780 Y97.858 E8.91670
G1 X109.775 Y99.168 E8.96256
G1 X108.465 Y100.173 E9.00841
G1 X106.940 Y100.805 E9.05427
G1 X105.303 Y101.020 E9.10012
G1 X103.667 Y100.805 E9.14597
G1 X102.142 Y100.173 E9.19183
G1 X100.832 Y99.168 E9.23768
G1 X99.873 Y97.918 E9.28145
G1 X100.303 Y97.584 F7800.000
G1 X99.726 Y96.191 E9.30932 F900.000
G1 X99.530 Y94.697 E9.33719
G1 X99.726 Y93.202 E9.36505
G1 X100.303 Y91.810 E9.39292
G1 X101.221 Y90.614 E9.42079
G1 X102.416 Y89.697 E9.44865
G1 X103.809 Y89.120 E9.47652
G1 X104.306 Y89.054 E9.48579
G1 X105.303 Y88.923 E9.50439 F900.000
G1 X106.798 Y89.120 E9.53225
G1 X108.190 Y89.697 E9.56012
G1 X109.386 Y90.614 E9.58798
G1 X110.304 Y91.810 E9.61585
G1 X110.880 Y93.202 E9.64372
G1 X111.077 Y94.697 E9.67158
G1 X110.880 Y96.191 E9.69945
G1 X110.304 Y97.584 E9.72732
G1 X109.386 Y98.779 E9.75518
G1 X108.190 Y99.697 E9.78305
G1 X106.798 Y100.274 E9.81092
G1 X105.303 Y100.470 E9.83878
G1 X103.809 Y100.274 E9.86665
G1 X102.416 Y99.697 E9.89451
G1 X101.221 Y98.779 E9.92238
G1 X100.349 Y97.643 E9.94886
G1 X99.804 Y97.562 F7800.000
G1 E7.94886 F2400.00000
G92 E0
G1 X102.038 Y89.041 F7800.000
G1 X103.984 Y86.610 F7800.000
G1 X107.055 Y87.922 F7800.000
G1 X108.482 Y88.866 F7800.000
G1 X108.574 Y88.775 F7800.000
G1 X108.988 Y88.899 F7800.000
G1 E2.00000 F2400.00000
G1 X118.032 Y97.943 E2.35528 F3600.000
